**kern	**text
*staff3	*staff3
*I"Bass	*
*clefF4	*
*k[b-e-]	*
*met(c)	*
*M4/4	*
4.B-\	H&ouml;rst
8B-\	du
=1	=1
4A\	nicht
4A\	die
4.G\	B&auml;u-
8G\	-me
=2	=2
4F\	rau-
4F\	-schen
4E-\	drau-
4E-\	-ßen
=3	=3
4D\	durch
4D\	die
4C/	stil-
4BB-/	-le
=4	=4
!!linebreak:original
2AA/	Rund?
4.B-\	Lockt's
8B-\	dich
=5	=5
!!linebreak:original
4A\	nicht,
4A\	hin-
4.G\	-ab-
8G\	-zu-
=6	=6
4F\	-lau-
4F\	-schen
4E-\	von
4E-\	dem
=7	=7
4.D\	S&ouml;l-
8D\	-ler
4D\	in
4D\	den
=8	=8
2G\	Grund,
2r	.
=9	=9
1r	.
=10	=10
!!pagebreak:original
1BB-	nicht
=11	=11
4AA/	von
4AA/	dem
4BB-/	S&ouml;l-
4BB-/	-ler
=12	=12
2C/	in
2C/	den
=13	=13
2.FF/ 2.F/	Grund,
4r	.
=14	=14
!!linebreak:original
8B-\	wo
8B-\	die
8B-\	vie-
8B-\	-len
4A-\	B&auml;-
4A-\	-che
=15	=15
2G-\	ge-
4F\	-hen
4r	.
=16	=16
8B-\	wun-
8B-\	-der-
8B-\	-bar
8B-\	im
4B--\	Mon-
4B--\	-den-
=17	=17
2.A-\	-schein
4r	.
=18	=18
!!pagebreak:original
8C/	und
8C/	die
8C/	stil-
8C/	-len
4D-\	Schl&ouml;s-
4D-\	-ser
=19	=19
2BB-/	se-
4C/	-hen
8.B-\	in
16B-\	den
=20	=20
4.A-\	Fluß
8A-\	vom
4A-\	ho-
4A-\	-hen
=21	=21
2G\	Stein,
4r	.
8.G-\	in
16G-\	den
=22	=22
!!linebreak:original
4.F\	Fluß
8F\	vom
4F\	ho-
4F\	-hen
=23	=23
[1B-	Stein?
=24	=24
1B-_	.
=25	=25
2B-;\]	.
=||	=||
4.B-\	Kennst
8B-\	du
=26	=26
!!linebreak:original
4A\	noch
4A\	die
4.G\	ir-
8G\	-ren
=27	=27
4F\	Lie-
4F\	-der
4E-\	aus
4E-\	der
=28	=28
4D\	al-
4D\	-ten,
4C/	sch&ouml;-
4BB-/	-nen
=29	=29
2AA/	Zeit?
4.B-\	Sie
8B-\	er-
=30	=30
4A\	-wa-
4A\	-chen
4.G\	al-
8G\	-le
=31	=31
!!linebreak:original
4F\	wie-
4F\	-der
4E-\	nachts
4E-\	in
=32	=32
4.D\	Wal-
8D\	-des-
4D\	-ein-
4D\	-sam-
=33	=33
2G\	-keit,
2r	.
=34	=34
1r	.
=35	=35
2.BB-/	wie-
4BB-/	-der
=36	=36
!!pagebreak:original
4AA/	nachts
4AA/	in
4BB-/	Wal-
4BB-/	-des-
=37	=37
2C/	-ein-
2C/	-sam-
=38	=38
2.FF/ 2.F/	-keit,
4r	.
=39	=39
8B-\	wenn
8B-\	die
8B-\	B&auml;u-
8B-\	-me
4A-\	tr&auml;u-
4A-\	-mend
=40	=40
!!linebreak:original
2G-\	lau-
4F\	-schen
4r	.
=41	=41
8B-\	und
8B-\	der
8B-\	Flie-
8B-\	-der
4B--\	duf-
4B--\	-tet
=42	=42
2.A-\	schwül
4r	.
=43	=43
8C/	und
8C/	im
8C/	Fluß
8C/	die
4D-\	Ni-
4D-\	-xen
=44	=44
!!linebreak:original
2BB-/	rau-
4C/	-schen;
8.B-\	komm
16B-\	her-
=45	=45
4.A-\	-ab,
8A-\	hier
4A-\	ist's
4A-\	so
=46	=46
2G\	kühl,
4r	.
8.G-\	komm
16G-\	her-
=47	=47
4.F\	-ab,
8F\	hier
4F\	ist's
4F\	so
=48	=48
!!linebreak:original
2.BB-/	kühl,
8.B-\	komm
16B-\	her-
=49	=49
!!pagebreak:original
2.B-\	-ab,
8.B-\	komm
16B-\	her-
=50	=50
2.B-\	-ab,
8.B-\	komm
16E-\	her-
=51	=51
4.E-\	-ab,
8E-\	hier
4F\	ist's
4F\	so
=52	=52
2.BB-/	kühl,
4r	.
==	==
*-	*-
